src/assets/bold/lm-curve-line-bold.svg

<svg width="24" height="24" viewBox="0 0 24 24" fill="none" xmlns="http://www.w3.org/2000/svg" fill="currentColor">
<path d="M4.25057 9.66694L4.25328 9.66314L4.26964 9.64067C4.28512 9.61961 4.30968 9.58675 4.34301 9.54377C4.40973 9.45773 4.51128 9.33153 4.64523 9.17853C4.91382 8.87175 5.30881 8.46163 5.81044 8.05236C6.82173 7.22729 8.21283 6.44828 9.84618 6.44828C11.6571 6.44828 12.9199 7.15024 13.7311 8.1531C14.2264 8.76538 14.5695 9.51037 14.7569 10.316C14 10.1316 13.1816 10.0207 12.3077 10.0207C8.39065 10.0207 6.16077 12.0533 5.77917 14.3883C5.59288 15.5282 5.87042 16.69 6.58915 17.5696C7.31353 18.4561 8.43886 19 9.84618 19C13.8711 19 16.0643 15.6782 16.2905 12.3836C16.8442 12.6446 17.3413 12.9388 17.7765 13.2347C18.4302 13.6792 18.938 14.1232 19.2802 14.4539C19.4511 14.619 19.58 14.7552 19.6645 14.848C19.7068 14.8943 19.7378 14.9298 19.7574 14.9526L19.7781 14.9769L19.7814 14.9808L19.7822 14.9818C20.0307 15.2849 20.4671 15.3204 20.7575 15.0608C21.0481 14.801 21.0824 14.3439 20.834 14.0399L20.3077 14.5103C20.834 14.0399 20.834 14.0399 20.834 14.0399L20.8331 14.0388L20.832 14.0375L20.8289 14.0337L20.8193 14.0222C20.8113 14.0127 20.8004 13.9997 20.7864 13.9835C20.7586 13.9512 20.7187 13.9057 20.6672 13.8491C20.5642 13.736 20.4142 13.578 20.2197 13.39C19.8312 13.0147 19.2621 12.5174 18.5311 12.0204C17.8934 11.5868 17.1277 11.1504 16.2478 10.7963C16.0869 9.49474 15.6112 8.235 14.7881 7.21759C13.6956 5.867 12.0353 5 9.84618 5C7.78723 5 6.10142 5.97822 4.95886 6.91039C4.38358 7.37975 3.93242 7.84825 3.62409 8.20043C3.46958 8.37692 3.34998 8.52528 3.26765 8.63145C3.22647 8.68456 3.19454 8.72721 3.17216 8.75764C3.16097 8.77285 3.15216 8.78503 3.14577 8.79394L3.138 8.80483L3.13548 8.80839L3.13456 8.80969C3.13456 8.80969 3.13388 8.81067 3.69235 9.23862L3.13388 8.81067C2.90792 9.13329 2.97478 9.58642 3.28321 9.82277C3.59153 10.059 4.02454 9.98924 4.25057 9.66694ZM14.9252 11.858C14.925 11.8991 14.9243 11.9403 14.9233 11.9814C14.853 14.8478 13.0571 17.5517 9.84618 17.5517C8.79197 17.5517 8.07114 17.1542 7.64169 16.6286C7.20658 16.0962 7.02258 15.3752 7.14398 14.6324C7.37776 13.2019 8.84017 11.469 12.3077 11.469C13.2554 11.469 14.1312 11.619 14.9252 11.858Z" fill="black"/>
</svg>

<svg xmlns="http://www.w3.org/2000/svg" width="24" height="24" fill="currentColor" viewBox="0 0 24 24">
  <path d="m4.25 9.667.003-.004.017-.022a8.042 8.042 0 0 1 .376-.462A9.814 9.814 0 0 1 5.81 8.052c1.012-.825 2.403-1.604 4.036-1.604 1.811 0 3.074.702 3.885 1.705.495.612.838 1.357 1.026 2.163a10.322 10.322 0 0 0-2.45-.295c-3.916 0-6.146 2.032-6.528 4.367-.186 1.14.091 2.302.81 3.182.725.886 1.85 1.43 3.257 1.43 4.025 0 6.218-3.322 6.445-6.616.553.26 1.05.555 1.485.85a11.44 11.44 0 0 1 1.504 1.22 8.669 8.669 0 0 1 .477.499l.021.024.003.004h.001a.671.671 0 0 0 .976.08.747.747 0 0 0 .076-1.021l-.526.47.526-.47v-.001l-.002-.002-.003-.003-.01-.012-.033-.039a10.153 10.153 0 0 0-.567-.593 12.84 12.84 0 0 0-1.688-1.37 12.13 12.13 0 0 0-2.283-1.224c-.161-1.301-.637-2.561-1.46-3.578C13.696 5.867 12.035 5 9.846 5c-2.059 0-3.745.978-4.887 1.91a11.224 11.224 0 0 0-1.691 1.721 6.268 6.268 0 0 0-.122.163l-.008.01-.003.004v.002l.557.429-.558-.428a.746.746 0 0 0 .15 1.012.673.673 0 0 0 .967-.156Zm10.675 2.191c0 .041 0 .082-.002.123-.07 2.867-1.866 5.57-5.077 5.57-1.054 0-1.775-.397-2.204-.922-.435-.533-.62-1.254-.498-1.997.234-1.43 1.696-3.163 5.164-3.163.947 0 1.823.15 2.617.389Z"/>
</svg>
